!!!OTL: Der schwatzhafte Junggeselle Es sassen drei Gesellen.
!!!ARE: Europa, Mitteleuropa, Deutschland
!!!YOR: 6, S. 312
!!    1894 gedruckt in Leipzig
!!!SCT: Q0139N
!!!YEM: Copyright 1995, estate of Helmut Schaffrath.
**kern
*ICvox
*Ivox
*M4/4
*k[f#]
*G:
{4d
=1
2g
2b
=2
2.dd
4cc
=3
2b
2a
=4
2g
4r}
{4d
=5
2g
4b
4b
=6
2.dd
4cc
=7
2b
2a
=8
2g
4r}
{4g
=9
4b
4b
4b
4b
=10
2b
4a
4g
=11
4b
4dd
4cc
4b
=12
2a
4r}
{4d
=13
4g
4a
4b
4cc
=14
4.dd
8ee
4dd
4cc
=15
4b
4b
4a
4a
=16
2g
4r}
==
!!!AGN: Ballade, Indiskretion, verweigerter Beischlaf
!!!ONB: ESAC (Essen Associative Code) Database: BALLADE
!!!AMT: simple quadruple
!!!AIN: vox
!!!EED: Helmut Schaffrath
!!!EEV: 1.0
*-
